icons/tag.svg

<?xml version="1.0" standalone="no"?><!-- Generator: Gravit.io --><svg xmlns="http://www.w3.org/2000/svg" xmlns:xlink="http://www.w3.org/1999/xlink" width="96" height="96"><path d=" M 76 16.85 L 52 16.85 C 50.5 16.85 49.1 17.450000000000003 48 18.55 L 13.7 52.85 L 40 79.15 L 74.3 44.85 C 75.4 43.75 76 42.35 76 40.85 L 76 16.85 Z  M 76 8.850000000000001 L 52 8.850000000000001 C 48.4 8.850000000000001 44.9 10.250000000000002 42.3 12.850000000000001 L 8 47.15 C 8 47.15 8 47.15 8 47.15 C 6.5 48.65 5.7 50.75 5.7 52.85 C 5.7 54.95 6.5 57.050000000000004 8 58.550000000000004 C 8 58.550000000000004 8 58.550000000000004 8 58.550000000000004 L 34.3 84.85 C 34.3 84.85 34.3 84.85 34.3 84.85 C 35.8 86.35 37.9 87.15 40 87.15 C 42.1 87.15 44.2 86.35 45.7 84.85 C 45.7 84.85 45.7 84.85 45.7 84.85 L 80 50.550000000000004 C 82.6 47.95 84 44.45 84 40.85 L 84 16.85 C 84 14.750000000000002 83.2 12.650000000000002 81.7 11.150000000000002 C 80.2 9.650000000000002 78.1 8.850000000000001 76 8.850000000000001 Z  M 60 28.85 C 60 26.64233988198995 61.792339881989946 24.85 64 24.85 C 66.20766011801005 24.85 68 26.64233988198995 68 28.85 C 68 31.057660118010048 66.20766011801005 32.85 64 32.85 C 61.79233988198995 32.85 60 31.05766011801005 60 28.85 Z " fill-rule="evenodd" fill="#454545" stroke="none"/><mask id="_mask_lP8HBaSCf7DL1wHPGSn11NHiRiQPcNwQ"><path d=" M 76 16.85 L 52 16.85 C 50.5 16.85 49.1 17.450000000000003 48 18.55 L 13.7 52.85 L 40 79.15 L 74.3 44.85 C 75.4 43.75 76 42.35 76 40.85 L 76 16.85 Z  M 76 8.850000000000001 L 52 8.850000000000001 C 48.4 8.850000000000001 44.9 10.250000000000002 42.3 12.850000000000001 L 8 47.15 C 8 47.15 8 47.15 8 47.15 C 6.5 48.65 5.7 50.75 5.7 52.85 C 5.7 54.95 6.5 57.050000000000004 8 58.550000000000004 C 8 58.550000000000004 8 58.550000000000004 8 58.550000000000004 L 34.3 84.85 C 34.3 84.85 34.3 84.85 34.3 84.85 C 35.8 86.35 37.9 87.15 40 87.15 C 42.1 87.15 44.2 86.35 45.7 84.85 C 45.7 84.85 45.7 84.85 45.7 84.85 L 80 50.550000000000004 C 82.6 47.95 84 44.45 84 40.85 L 84 16.85 C 84 14.750000000000002 83.2 12.650000000000002 81.7 11.150000000000002 C 80.2 9.650000000000002 78.1 8.850000000000001 76 8.850000000000001 Z  M 60 28.85 C 60 26.64233988198995 61.792339881989946 24.85 64 24.85 C 66.20766011801005 24.85 68 26.64233988198995 68 28.85 C 68 31.057660118010048 66.20766011801005 32.85 64 32.85 C 61.79233988198995 32.85 60 31.05766011801005 60 28.85 Z " fill-rule="evenodd" fill="white" stroke="none"/></mask><path d=" M 76 16.85 L 52 16.85 C 50.5 16.85 49.1 17.450000000000003 48 18.55 L 13.7 52.85 L 40 79.15 L 74.3 44.85 C 75.4 43.75 76 42.35 76 40.85 L 76 16.85 Z  M 76 8.850000000000001 L 52 8.850000000000001 C 48.4 8.850000000000001 44.9 10.250000000000002 42.3 12.850000000000001 L 8 47.15 C 8 47.15 8 47.15 8 47.15 C 6.5 48.65 5.7 50.75 5.7 52.85 C 5.7 54.95 6.5 57.050000000000004 8 58.550000000000004 C 8 58.550000000000004 8 58.550000000000004 8 58.550000000000004 L 34.3 84.85 C 34.3 84.85 34.3 84.85 34.3 84.85 C 35.8 86.35 37.9 87.15 40 87.15 C 42.1 87.15 44.2 86.35 45.7 84.85 C 45.7 84.85 45.7 84.85 45.7 84.85 L 80 50.550000000000004 C 82.6 47.95 84 44.45 84 40.85 L 84 16.85 C 84 14.750000000000002 83.2 12.650000000000002 81.7 11.150000000000002 C 80.2 9.650000000000002 78.1 8.850000000000001 76 8.850000000000001 Z  M 60 28.85 C 60 26.64233988198995 61.792339881989946 24.85 64 24.85 C 66.20766011801005 24.85 68 26.64233988198995 68 28.85 C 68 31.057660118010048 66.20766011801005 32.85 64 32.85 C 61.79233988198995 32.85 60 31.05766011801005 60 28.85 Z " fill-rule="evenodd" fill="none" stroke="none" stroke-width="16" mask="url(#_mask_lP8HBaSCf7DL1wHPGSn11NHiRiQPcNwQ)"/></svg>

<svg xmlns="http://www.w3.org/2000/svg" width="96" height="96"><path d="M76 16.85H52c-1.5 0-2.9.6-4 1.7l-34.3 34.3L40 79.15l34.3-34.3c1.1-1.1 1.7-2.5 1.7-4v-24zm0-8H52c-3.6 0-7.1 1.4-9.7 4L8 47.15c-1.5 1.5-2.3 3.6-2.3 5.7s.8 4.2 2.3 5.7l26.3 26.3c1.5 1.5 3.6 2.3 5.7 2.3s4.2-.8 5.7-2.3L80 50.55c2.6-2.6 4-6.1 4-9.7v-24c0-2.1-.8-4.2-2.3-5.7-1.5-1.5-3.6-2.3-5.7-2.3zm-16 20c0-2.208 1.792-4 4-4s4 1.792 4 4-1.792 4-4 4-4-1.792-4-4z" fill-rule="evenodd" fill="#454545"/></svg>
